X: 987
T: Billy O'Rourke is the boy
C: anon.
O: Ireland
B: Francis O'Neill: "The Dance Music of Ireland" (1907) no. 987
Z: Transcribed by Frank Nordberg - http://www.musicaviva.com
F: http://www.musicaviva.com/abc/tunes/ireland/oneill-1001/oneill-1001-098
7.abc
M: 6/8
L: 1/8
K: D
e|d2B BcB|A2A A2A|B2B BcB|"^1)"g3f2e|d2B BcB|A2A A2c|Bcd ec(A|d3) d2:|
|:A|d2(e f2g)|aba (a2f)|d2(e f2g)|a3 (f2a)|bab (a2f)|gag (f2e)|d2B BcB|g3
 f2e|
d2B BcB|A2A A2A|b2B BcB|g3 f2e|d2B BcB|A2A A2c|Bcd ec(A|d3)d2:|
W:
W:
W: 1) org. not dotted.
W:
W:
W: From Musica Viva - http://www.musicaviva.com
W: the Internet center for free sheet music downloads.


